!!!!SEGMENT: AzumaHakkei_M.krn
!!!COM: Rokusaburō Kineya
!!!OTL: Azuma Hakkei
!!!OPR:Eiga Banso Kyokusyu,jidai-geki,zenpen
!!!YOY:1929
!!!ONB: National
**kern
*clefG2
*k[]
*
*M2/4
=1
4dd
4ee
=2
4dd
8eeL
8eeJ
=3
8eL
8eeJ
8eeL
8eeJ
=4
2ee
=5
8eeL
8eeJ
8eL
8bJ
=6
8eeL
8eeJ
8eL
8bJ
=7
8eeL
8eeJ
8eL
8bJ
=8
8eeL
8eeJ
8eL
8bJ
=9
8eeL
8ff#XJ
8ggL
8ggJ
=10
8ff#XL
8eeJ
4cc
=11
8eeL
8ccJ
8bL
8aJ
=12
4f
4r
=13
2cc
=14
2b
=15
2a
=16
2b
=17
4cc
4b
=18
4a
4b
=19
8ccL
8bJ
8aL
8fJ
=20
4e
4r
=21
4b
4b
=22
4b
4b
=23
4e
8bL
8bJ
=24
8eL
8bJ
4r
=25
4b
4b
!!linebreak:original
=26
4b
4b
=27
4e
8bL
8bJ
=28
8eL
8bJ
4r
=29
8bb
4bb
8gg
=30
4ff#X
4r
=31
8bb
4bb
8gg
=32
4ff#X
4r
=33
4ee
4ff#X
=34
4ee
4ff#X
=35
8ggL
8ff#XJ
8eeL
8ccJ
=36
4b
4r
=37
2cc
=38
2cc
=39
4cc
4cc
=40
4cc
4cc
=41
8BL
8aJ
8aL
8aJ
=42
8bL
8bJ
4r
=43
4cc
4cc
=44
4cc
4cc
=45
8BL
8aJ
8aL
8aJ
=46
8bL
8bJ
4r
=47
8aL
(8aJ
8bL)
8aJ
=48
8bL
8aJ
4f
=49
8aL
(8aJ
8bL)
8aJ
=50
8bL
8aJ
4f
=51
8bL
8aJ
4f
=52
8bL
8aJ
4f
=53
8aL
8fJ
8.eL
16cJk
=54
2B
=55
8dL
8dJ
8eL
8dJ
=56
4e
8fL
8fJ
=57
8fL
8eJ
8eL
8dJ
=58
8eL
8dJ
8dL
8eJ
=59
8fL
8fJ
8fL
8fJ
=60
8eL
8eJ
8eL
8eJ
=61
8dL
8dJ
8eL
8eJ
=62
8aL
8aJ
8fL
8fJ
=63
8aL
8aJ
8fL
8fJ
=64
8aL
8aJ
8bL
(8aJ
=65
8bL)
(8aJ
8bL)
(8aJ
=66
8bL)
(8aJ
8bL)
8aJ
=67
8bL
8bJ
4r
=68
8r
8ccc
8cccL
8bbJ
=69
8aaL
8aaJ
8r
8ccc
=70
8aaL
8aaJ
8r
8ccc
=71
8aaL
8aaJ
8r
8bb
=72
8r
8ccc
8cccL
8cccJ
=73
8cccL
8cccJ
8cccL
8cccJ
=74
8bbL
8bbJ
8bbL
8bbJ
=75
8bbL
8bbJ
8bbL
8bbJ
=76
8aaL
8aaJ
8bbL
8bbJ
=77
8aaL
8aaJ
8bbL
8bbJ
=78
8aaL
(8aaJ
8bbL)
(8aaJ
=79
8bbL)
(8aaJ
8bbL)
(8aaJ
=80
8bbL)
(8aaJ
8bbL)
(8aaJ
=81
8bbL)
(8aaJ
8bbL)
8aaJ
=82
8bbL
8aaJ
8bbL
8aaJ
=83
8ffL
8aaJ
8bbL
8aaJ
=84
8bbL
8aaJ
4ff
=85
8ee
4ee
8cc
=86
4b
4r
=87
8eeL
8eeJ
4r
=88
8eeL
8eeJ
4r
=89
4ee
4ee
=90
4ee
4r
=91
8cL
8eJ
8f#XL
8eJ
=92
8f#XL
8f#J
4r
=93
8cL
8eJ
8f#XL
8eJ
=94
8f#XL
8f#J
4r
=95
8cL
8eJ
8f#XL
8eJ
=96
8cL
8eJ
8f#XL
8eJ
=97
8cL
8eJ
8f#XL
8eJ
=98
8f#XL
8f#J
4r
=99
8ddL
8ddJ
8cc#XL
8cc#J
=100
8bL
8bJ
8cc#XL
8cc#J
=101
8r
8dd
8ddL
8cc#XJ
=102
8cc#XL
8bJ
8bL
8gJ
=103
8r
8cc#X
8cc#L
8gJ
=104
8cc#XL
8gJ
8cc#L
8gJ
=105
8gL
8cc#XJ
8cc#L
8gJ
=106
4f#X
4r
==
*-
!!!ENC: Yukiko Yoden
!!!END: 2022/03/21
